Newaita-dark/emblems/48/vcs-normal.svg

<svg height="48" viewBox="0 0 48 48" width="48" xmlns="http://www.w3.org/2000/svg"><path d="m423.417899-147.673096c-7.707597.041663-14.748592 4.249594-18.456571 10.99895l-176.358159 313.595053-128.529392-137.695184c-5.124511-5.624463-12.832108-8.082562-20.248067-6.374392-7.415958 1.666508-13.33206 7.207645-15.49852 14.456953-2.208122 7.290971-.291638 15.165219 4.95786 20.664693l148.152519 158.734842c4.582896 4.916197 11.248926 7.332633 17.914956 6.541042s12.540469-4.749546 15.831821-10.582323l190.523473-338.675991c3.791305-6.541042 3.791305-14.581941 0-21.122983-3.749642-6.541042-10.748974-10.54066-18.28992-10.54066zm0 0" fill="#212121" stroke="#26a69a" stroke-linecap="round" stroke-linejoin="round" stroke-width="82" transform="matrix(.093759 0 0 .093759 0 20.158175)"/><path d="m39.699219 6.3125c-.722657.003906-1.382813.398438-1.730469 1.03125l-16.535156 29.402344-12.050782-12.910156c-.480468-.527344-1.203124-.757813-1.898437-.597657-.695313.15625-1.25.675781-1.453125 1.355469-.207031.683594-.027344 1.421875.464844 1.9375l13.890625 14.882812c.429687.460938 1.054687.6875 1.679687.613282.625-.074219 1.175782-.445313 1.484375-.992188l17.863281-31.753906c.355469-.613281.355469-1.367188 0-1.980469-.351562-.613281-1.007812-.988281-1.714843-.988281zm0 0" fill="#fafafa"/></svg>

<?xml version="1.0" encoding="UTF-8"?>
<svg xmlns="http://www.w3.org/2000/svg" xmlns:xlink="http://www.w3.org/1999/xlink" width="48px" height="48px" viewBox="0 0 48 48" version="1.1">
<g id="surface1">
<path style="fill-rule:nonzero;fill:rgb(12.941177%,12.941177%,12.941177%);fill-opacity:1;stroke-width:82;stroke-linecap:round;stroke-linejoin:round;stroke:rgb(14.901961%,65.098041%,60.392159%);stroke-opacity:1;stroke-miterlimit:4;" d="M 423.417899 -147.673096 C 415.710302 -147.631433 408.669307 -143.423502 404.961328 -136.674146 L 228.603169 176.920907 L 100.073777 39.225723 C 94.949266 33.60126 87.241669 31.143161 79.82571 32.851331 C 72.409752 34.517839 66.49365 40.058976 64.32719 47.308284 C 62.119068 54.599255 64.035552 62.473503 69.28505 67.972977 L 217.437569 226.707819 C 222.020465 231.624016 228.686495 234.040452 235.352525 233.248861 C 242.018555 232.45727 247.892994 228.499315 251.184346 222.666538 L 441.707819 -116.009453 C 445.499124 -122.550495 445.499124 -130.591394 441.707819 -137.132436 C 437.958177 -143.673478 430.958845 -147.673096 423.417899 -147.673096 Z M 423.417899 -147.673096 " transform="matrix(0.093759,0,0,0.093759,0,20.158175)"/>
<path style=" stroke:none;fill-rule:nonzero;fill:rgb(98.039216%,98.039216%,98.039216%);fill-opacity:1;" d="M 39.699219 6.3125 C 38.976562 6.316406 38.316406 6.710938 37.96875 7.34375 L 21.433594 36.746094 L 9.382812 23.835938 C 8.902344 23.308594 8.179688 23.078125 7.484375 23.238281 C 6.789062 23.394531 6.234375 23.914062 6.03125 24.59375 C 5.824219 25.277344 6.003906 26.015625 6.496094 26.53125 L 20.386719 41.414062 C 20.816406 41.875 21.441406 42.101562 22.066406 42.027344 C 22.691406 41.953125 23.242188 41.582031 23.550781 41.035156 L 41.414062 9.28125 C 41.769531 8.667969 41.769531 7.914062 41.414062 7.300781 C 41.0625 6.6875 40.40625 6.3125 39.699219 6.3125 Z M 39.699219 6.3125 "/>
</g>
</svg>
